img/tram-wagon.svg

<?xml version="1.0" encoding="UTF-8"?>
<svg class="" enable-background="new 0 0 512 512" version="1.1" viewBox="0 0 512 512" xmlns="http://www.w3.org/2000/svg">
<g fill="#756a6b" xmlns="http://www.w3.org/2000/svg">
<circle class="" cx="95.509" cy="408.5" r="42.5" style="" data-original="#756a6b"/>
<circle class="" cx="202.5" cy="408.5" r="42.5" style="" data-original="#756a6b"/>
<circle class="" cx="309.5" cy="408.5" r="42.5" style="" data-original="#756a6b"/>
<circle class="" cx="416.49" cy="408.5" r="42.5" style="" data-original="#756a6b"/>
</g>
<rect class="" x="7.499" y="391" width="497" height="30" fill="#e60010" style="" data-original="#2d86cc" xmlns="http://www.w3.org/2000/svg"/>
<rect class="" x="474.5" y="391" width="30" height="30" fill="#e60010" style="" data-original="#266fab" xmlns="http://www.w3.org/2000/svg"/>
<rect class="" x="30.999" y="181" width="450" height="30" fill="#e60010" style="" data-original="#2d86cc" xmlns="http://www.w3.org/2000/svg"/>
<rect class="" x="451" y="181" width="30" height="30" fill="#e60010" style="" data-original="#266fab" xmlns="http://www.w3.org/2000/svg"/>
<rect class="" x="7.499" y="301" width="497" height="90" fill="#e60010" style="" data-original="#ff5948" xmlns="http://www.w3.org/2000/svg"/>
<rect class="" x="474.5" y="301" width="30" height="90" fill="#de2236" style="" data-original="#d44a3c" xmlns="http://www.w3.org/2000/svg"/>
<rect x="37.499" y="331" width="74.79" height="30" fill="#ffd359" style="" data-original="#ffd359" xmlns="http://www.w3.org/2000/svg"/>
<polygon class="" points="504.5 301 7.499 301 30.999 211 481 211" fill="#76d1e3" style="" data-original="#76d1e3" xmlns="http://www.w3.org/2000/svg"/>
<polygon class="" points="481 211 451 211 474.5 301 504.5 301" fill="#5ab9cc" style="" data-original="#5ab9cc" xmlns="http://www.w3.org/2000/svg"/>
<rect class="" x="211" y="151" width="90" height="30" fill="#e60010" style="" data-original="#ff5948" xmlns="http://www.w3.org/2000/svg"/>
<rect class="" x="271" y="151" width="30" height="30" fill="#de2236" style="" data-original="#d44a3c" xmlns="http://www.w3.org/2000/svg"/>
<path class="" d="m511.99 300.9c-1e-3 -0.107-0.01-0.214-0.016-0.32-0.01-0.17-0.021-0.34-0.042-0.507-0.012-0.097-0.028-0.194-0.044-0.291-0.03-0.181-0.065-0.36-0.108-0.537-0.011-0.046-0.016-0.093-0.028-0.138l-10.039-38.446c-1.046-4.007-5.141-6.405-9.152-5.362-4.008 1.046-6.408 5.144-5.362 9.152l7.586 29.051h-83.519v-74.998h63.936l4.053 15.524c1.047 4.008 5.142 6.409 9.152 5.362 4.007-1.046 6.408-5.144 5.362-9.152l-5.274-20.197v-29.036c0-4.142-3.358-7.5-7.5-7.5h-172.5v-22.5c0-4.142-3.358-7.5-7.5-7.5h-16.774l-28.226-0.28-45 0.279c-4.142 0-7.5 3.358-7.5 7.5v22.5h-172.5c-4.142 0-7.5 3.358-7.5 7.5v29.036l-23.257 89.067c-0.012 0.045-0.016 0.091-0.027 0.136-0.043 0.178-0.078 0.358-0.108 0.54-0.016 0.096-0.032 0.193-0.044 0.289-0.021 0.167-0.033 0.337-0.042 0.508-6e-3 0.107-0.015 0.213-0.016 0.32 0 0.034-5e-3 0.067-5e-3 0.101v89.998 29.999c0 4.142 3.358 7.5 7.5 7.5h42.173c7.867 18.151 25.641 30 45.836 30s37.969-11.849 45.837-29.999h15.316c7.868 18.151 25.642 29.999 45.837 29.999 20.205 0 37.979-11.848 45.839-29.999h15.322c7.86 18.151 25.635 29.999 45.839 29.999 20.195 0 37.969-11.848 45.837-29.999h15.316c7.868 18.151 25.643 29.999 45.837 29.999s37.969-11.849 45.837-29.999h42.173c4.142 0 7.5-3.358 7.5-7.5v-29.999-89.998c0-0.035-5e-3 -0.068-5e-3 -0.102zm-14.995 7.601v74.999h-482v-74.999h118c4.142 0 7.5-3.358 7.5-7.5s-3.358-7.5-7.5-7.5h-17.271v-74.998h83.27v74.998h-33.999c-4.142 0-7.5 3.358-7.5 7.5s3.358 7.5 7.5 7.5h332zm-199.36-15h-83.27v-74.998h83.27v74.998zm98.636 0h-83.27v-74.998h83.27v74.998zm-177.77-135h37.271c0.076 1e-3 0.153 8e-3 0.229 8e-3s0.152-7e-3 0.228-8e-3h37.272v15h-75v-15zm-180 29.999h172.5 90 172.5v15h-435v-15zm-1.707 30h63.936v74.998h-83.519l19.583-74.998zm58.717 225c-11.768 0-22.36-5.748-28.758-15h57.516c-6.398 9.253-16.99 15-28.758 15zm106.99 0c-11.768 0-22.36-5.748-28.758-15h57.521c-6.394 9.253-16.988 15-28.763 15zm107 0c-11.775 0-22.369-5.748-28.763-15h57.521c-6.398 9.253-16.99 15-28.758 15zm106.99 0c-11.768 0-22.36-5.748-28.758-15h57.516c-6.398 9.253-16.99 15-28.758 15zm80.51-29.999h-39.868-0.074-81.138-0.069-25.707-0.077-81.123-0.091-25.71-0.082-81.129-0.074-25.706-0.074-81.138-0.069-39.871v-15h482v15z" style="" data-original="#000000" xmlns="http://www.w3.org/2000/svg"/>
<path class="" d="m112.28 323.5h-74.786c-4.142 0-7.5 3.358-7.5 7.5v29.999c0 4.142 3.358 7.5 7.5 7.5h74.786c4.142 0 7.5-3.358 7.5-7.5v-29.999c0-4.142-3.358-7.5-7.5-7.5zm-7.5 29.999h-59.786v-15h59.786v15z" style="" data-original="#000000" xmlns="http://www.w3.org/2000/svg"/>
<path class="" d="m372.5 333.5c0 4.142 3.358 7.5 7.5 7.5h53c4.142 0 7.5-3.358 7.5-7.5s-3.358-7.5-7.5-7.5h-53c-4.142 0-7.5 3.358-7.5 7.5z" style="" data-original="#000000" xmlns="http://www.w3.org/2000/svg"/>
<path class="" d="m433 353.5h-53c-4.142 0-7.5 3.358-7.5 7.5s3.358 7.5 7.5 7.5h53c4.142 0 7.5-3.358 7.5-7.5s-3.358-7.5-7.5-7.5z" style="" data-original="#000000" xmlns="http://www.w3.org/2000/svg"/>
</svg>

<?xml version="1.0" encoding="utf-8"?>
<svg version="1.1" width="512" height="512" x="0" y="0" viewBox="0 0 511.999 511.999" style="enable-background:new 0 0 512 512" class="" xmlns="http://www.w3.org/2000/svg">
  <g>
    <g xmlns="http://www.w3.org/2000/svg">
      <circle style="" cx="95.509" cy="408.499" r="42.5" fill="#756a6b" data-original="#756a6b" class=""/>
      <circle style="" cx="202.499" cy="408.499" r="42.5" fill="#756a6b" data-original="#756a6b" class=""/>
      <circle style="" cx="309.499" cy="408.499" r="42.5" fill="#756a6b" data-original="#756a6b" class=""/>
      <circle style="" cx="416.489" cy="408.499" r="42.5" fill="#756a6b" data-original="#756a6b" class=""/>
    </g>
    <rect xmlns="http://www.w3.org/2000/svg" x="7.499" y="390.999" style="" width="497" height="30" fill="#e60010" data-original="#2d86cc" class=""/>
    <rect xmlns="http://www.w3.org/2000/svg" x="474.499" y="390.999" style="" width="30" height="30" fill="#e60010" data-original="#266fab" class=""/>
    <rect xmlns="http://www.w3.org/2000/svg" x="30.999" y="180.999" style="" width="450" height="30" fill="#e60010" data-original="#2d86cc" class=""/>
    <rect xmlns="http://www.w3.org/2000/svg" x="450.999" y="180.999" style="" width="30" height="30" fill="#e60010" data-original="#266fab" class=""/>
    <rect xmlns="http://www.w3.org/2000/svg" x="7.499" y="300.999" style="" width="497" height="90" fill="#e60010" data-original="#ff5948" class=""/>
    <rect xmlns="http://www.w3.org/2000/svg" x="474.499" y="300.999" style="" width="30" height="90" fill="#de2236" data-original="#d44a3c" class=""/>
    <rect xmlns="http://www.w3.org/2000/svg" x="37.499" y="330.999" style="" width="74.79" height="30" fill="#ffd359" data-original="#ffd359"/>
    <polygon xmlns="http://www.w3.org/2000/svg" style="" points="504.499,300.999 7.499,300.999 30.999,210.999 480.999,210.999 " fill="#76d1e3" data-original="#76d1e3" class=""/>
    <polygon xmlns="http://www.w3.org/2000/svg" style="" points="480.999,210.999 450.999,210.999 474.499,300.999 504.499,300.999 " fill="#5ab9cc" data-original="#5ab9cc" class=""/>
    <rect xmlns="http://www.w3.org/2000/svg" x="210.999" y="150.999" style="" width="90" height="30" fill="#e60010" data-original="#ff5948" class=""/>
    <rect xmlns="http://www.w3.org/2000/svg" x="270.999" y="150.999" style="" width="30" height="30" fill="#de2236" data-original="#d44a3c" class=""/>
    <path xmlns="http://www.w3.org/2000/svg" d="M 511.994 300.901 C 511.993 300.794 511.984 300.687 511.978 300.581 C 511.968 300.411 511.957 300.241 511.936 300.074 C 511.924 299.977 511.908 299.88 511.892 299.783 C 511.862 299.602 511.827 299.423 511.784 299.246 C 511.773 299.2 511.768 299.153 511.756 299.108 L 501.717 260.662 C 500.671 256.655 496.576 254.257 492.565 255.3 C 488.557 256.346 486.157 260.444 487.203 264.452 L 494.789 293.503 L 411.27 293.503 L 411.27 218.505 L 475.206 218.505 L 479.259 234.029 C 480.306 238.037 484.401 240.438 488.411 239.391 C 492.418 238.345 494.819 234.247 493.773 230.239 L 488.499 210.042 L 488.499 181.006 C 488.499 176.864 485.141 173.506 480.999 173.506 L 308.499 173.506 L 308.499 151.006 C 308.499 146.864 305.141 143.506 300.999 143.506 L 284.225 143.506 L 255.999 143.226 L 210.999 143.505 C 206.857 143.505 203.499 146.863 203.499 151.005 L 203.499 173.505 L 30.999 173.505 C 26.857 173.505 23.499 176.863 23.499 181.005 L 23.499 210.041 L 0.242 299.108 C 0.23 299.153 0.226 299.199 0.215 299.244 C 0.172 299.422 0.137 299.602 0.107 299.784 C 0.091 299.88 0.075 299.977 0.063 300.073 C 0.042 300.24 0.03 300.41 0.021 300.581 C 0.015 300.688 0.006 300.794 0.005 300.901 C 0.005 300.935 0 300.968 0 301.002 L 0 391 L 0 420.999 C 0 425.141 3.358 428.499 7.5 428.499 L 49.673 428.499 C 57.54 446.65 75.314 458.499 95.509 458.499 C 115.704 458.499 133.478 446.65 141.346 428.5 L 156.662 428.5 C 164.53 446.651 182.304 458.499 202.499 458.499 C 222.704 458.499 240.478 446.651 248.338 428.5 L 263.66 428.5 C 271.52 446.651 289.295 458.499 309.499 458.499 C 329.694 458.499 347.468 446.651 355.336 428.5 L 370.652 428.5 C 378.52 446.651 396.295 458.499 416.489 458.499 C 436.683 458.499 454.458 446.65 462.326 428.5 L 504.499 428.5 C 508.641 428.5 511.999 425.142 511.999 421 L 511.999 391.001 L 511.999 301.003 C 511.999 300.968 511.994 300.935 511.994 300.901 Z M 496.999 308.502 L 496.999 383.501 L 14.999 383.501 L 14.999 308.502 L 132.999 308.502 C 137.141 308.502 140.499 305.144 140.499 301.002 C 140.499 296.86 137.141 293.502 132.999 293.502 L 115.728 293.502 L 115.728 218.504 L 198.998 218.504 L 198.998 293.502 L 164.999 293.502 C 160.857 293.502 157.499 296.86 157.499 301.002 C 157.499 305.144 160.857 308.502 164.999 308.502 L 496.999 308.502 Z M 297.634 293.502 L 214.364 293.502 L 214.364 218.504 L 297.634 218.504 L 297.634 293.502 Z M 396.27 293.502 L 313 293.502 L 313 218.504 L 396.27 218.504 L 396.27 293.502 Z M 218.499 158.505 L 255.77 158.505 C 255.846 158.506 255.923 158.513 255.999 158.513 C 256.075 158.513 256.151 158.506 256.227 158.505 L 293.499 158.505 L 293.499 173.505 L 218.499 173.505 L 218.499 158.505 Z M 38.499 188.504 L 210.999 188.504 L 300.999 188.504 L 473.499 188.504 L 473.499 203.504 L 38.499 203.504 L 38.499 188.504 Z M 36.792 218.504 L 100.728 218.504 L 100.728 293.502 L 17.209 293.502 L 36.792 218.504 Z M 95.509 443.499 C 83.741 443.499 73.149 437.751 66.751 428.499 L 124.267 428.499 C 117.869 437.752 107.277 443.499 95.509 443.499 Z M 202.499 443.499 C 190.731 443.499 180.139 437.751 173.741 428.499 L 231.262 428.499 C 224.868 437.752 214.274 443.499 202.499 443.499 Z M 309.499 443.499 C 297.724 443.499 287.13 437.751 280.736 428.499 L 338.257 428.499 C 331.859 437.752 321.267 443.499 309.499 443.499 Z M 416.489 443.499 C 404.721 443.499 394.129 437.751 387.731 428.499 L 445.247 428.499 C 438.849 437.752 428.257 443.499 416.489 443.499 Z M 496.999 413.5 L 457.131 413.5 C 457.106 413.5 457.082 413.5 457.057 413.5 L 375.919 413.5 C 375.896 413.5 375.873 413.5 375.85 413.5 L 350.143 413.5 C 350.117 413.5 350.092 413.5 350.066 413.5 L 268.943 413.5 C 268.913 413.5 268.882 413.5 268.852 413.5 L 243.142 413.5 C 243.115 413.5 243.088 413.5 243.06 413.5 L 161.931 413.5 C 161.906 413.5 161.882 413.5 161.857 413.5 L 136.151 413.5 C 136.126 413.5 136.102 413.5 136.077 413.5 L 54.939 413.5 C 54.916 413.5 54.893 413.5 54.87 413.5 L 14.999 413.5 L 14.999 398.5 L 496.999 398.5 L 496.999 413.5 Z" fill="#000000" data-original="#000000" style="" class=""/>
    <path xmlns="http://www.w3.org/2000/svg" d="M112.285,323.502H37.499c-4.142,0-7.5,3.358-7.5,7.5v29.999c0,4.142,3.358,7.5,7.5,7.5h74.786c4.142,0,7.5-3.358,7.5-7.5  v-29.999C119.785,326.86,116.427,323.502,112.285,323.502z M104.785,353.501H44.999v-15h59.786  C104.785,338.501,104.785,353.501,104.785,353.501z" fill="#000000" data-original="#000000" style="" class=""/>
    <path xmlns="http://www.w3.org/2000/svg" d="M372.499,333.502c0,4.142,3.358,7.5,7.5,7.5h53c4.142,0,7.5-3.358,7.5-7.5s-3.358-7.5-7.5-7.5h-53  C375.857,326.002,372.499,329.36,372.499,333.502z" fill="#000000" data-original="#000000" style="" class=""/>
    <path xmlns="http://www.w3.org/2000/svg" d="M432.999,353.501h-53c-4.142,0-7.5,3.358-7.5,7.5s3.358,7.5,7.5,7.5h53c4.142,0,7.5-3.358,7.5-7.5  C440.499,356.859,437.141,353.501,432.999,353.501z" fill="#000000" data-original="#000000" style="" class=""/>
    <g xmlns="http://www.w3.org/2000/svg"/>
    <g xmlns="http://www.w3.org/2000/svg"/>
    <g xmlns="http://www.w3.org/2000/svg"/>
    <g xmlns="http://www.w3.org/2000/svg"/>
    <g xmlns="http://www.w3.org/2000/svg"/>
    <g xmlns="http://www.w3.org/2000/svg"/>
    <g xmlns="http://www.w3.org/2000/svg"/>
    <g xmlns="http://www.w3.org/2000/svg"/>
    <g xmlns="http://www.w3.org/2000/svg"/>
    <g xmlns="http://www.w3.org/2000/svg"/>
    <g xmlns="http://www.w3.org/2000/svg"/>
    <g xmlns="http://www.w3.org/2000/svg"/>
    <g xmlns="http://www.w3.org/2000/svg"/>
    <g xmlns="http://www.w3.org/2000/svg"/>
    <g xmlns="http://www.w3.org/2000/svg"/>
  </g>
</svg>
